ix/crown-1_linear.svg

<svg viewBox="0 0 24 24" fill="none" xmlns="http://www.w3.org/2000/svg" height="1em" width="1em">
  <path d="M16.7 18.98H7.30002C6.88002 18.98 6.41002 18.65 6.27002 18.25L2.13002 6.66999C1.54002 5.00999 2.23002 4.49999 3.65002 5.51999L7.55002 8.30999C8.20002 8.75999 8.94002 8.52999 9.22002 7.79999L10.98 3.10999C11.54 1.60999 12.47 1.60999 13.03 3.10999L14.79 7.79999C15.07 8.52999 15.81 8.75999 16.45 8.30999L20.11 5.69999C21.67 4.57999 22.42 5.14999 21.78 6.95999L17.74 18.27C17.59 18.65 17.12 18.98 16.7 18.98Z" stroke="#292D32" stroke-width="1.5" stroke-linecap="round" stroke-linejoin="round"/>
  <path d="M6.5 22H17.5" stroke="#292D32" stroke-width="1.5" stroke-linecap="round" stroke-linejoin="round"/>
  <path d="M9.5 14H14.5" stroke="#292D32" stroke-width="1.5" stroke-linecap="round" stroke-linejoin="round"/>
</svg>

<svg viewBox="0 0 24 24" fill="none" xmlns="http://www.w3.org/2000/svg" height="1em" width="1em">
  <path d="M16.7 18.98H7.3c-.42 0-.89-.33-1.03-.73L2.13 6.67c-.59-1.66.1-2.17 1.52-1.15l3.9 2.79c.65.45 1.39.22 1.67-.51l1.76-4.69c.56-1.5 1.49-1.5 2.05 0l1.76 4.69c.28.73 1.02.96 1.66.51l3.66-2.61c1.56-1.12 2.31-.55 1.67 1.26l-4.04 11.31c-.15.38-.62.71-1.04.71ZM6.5 22h11m-8-8h5" stroke="#292D32" stroke-width="1.5" stroke-linecap="round" stroke-linejoin="round"/>
</svg>
